X: 503
T: Cabur Dağdan Kuş Geliyor
C: Mustafa Savaş
O: Turkey
F: http://compmusic.upf.edu/node/140
N: gerdaniye--turku--sofyan--cabur_dagdan--urfa
N: makam= gerdaniye
N: form= turku
N: usul= sofyan = 4/4
M: 4/4
L: 1/16
K: C _2/4B ^3/4f  
Q: 1/4=87
%%MIDI tuningsystem comma53
z4 d2e2 e3c d3c  | e3d d2ed d3B c3B  | \
w:   |   | 
B2A2 d2e2 e3c d3c  | 
w:   | 
e3d d2ed d3B c3B  | BBA2 c2d2 d3B c2dB  | \
w:   |   | 
d3B c2dc c3B B3A  | 
w:   | 
A2A2 A2c2 c3B B3A  | c4 B2cB B2BA A4  | \
w:   |   | 
A2AA AAA2 AAA2 A4  | 
w:   | 
z4 f2g2 g3f f3e  | g4 f2gf f3e e3d  | \
w:  Ca bur  dağ *  dan   |  kuş  ge *  *  li *  yor    | 
d4 f3g g3f f3e  | 
w:  SAZ Mav zer  se *  si   | 
g3f f2gf f3e e3d  | d4 d2e2 e3c d3c  | \
w:  hoş  *  ge *  *  li *  yor    |  SAZ Bö lük  bö *  lük   | 
e3d d2ed d3B c3B  | 
w:  gi *  den  *  *  as *  ker    | 
BAB2 c2d2 d3c c2dB  | d3B c2dc c3B B3A  | \
w:  SAZ *  *  Ge ri  dön *  müş   |  boş  *  ge *  *  li *  yor    | 
A2A2 A2c2 c3B B3A  | 
w:  SAZ *  Ya zık  ol *  du   | 
c3B B2cB BB2A A4  | A2AA AAA2 AAAG ABcd  | 
w:  genç  *  ya *  *  şı na   |  vay   *  *  *  *  *  *  *  *  *  SAZ  | 
ede2 d2e2 e3c d3c  | e3d d2ed d3B c3B  | \
w:  *  *  *  Me me dim  *  as  |  lan  *  Me *  *  me *  dim    | 
B2A2 d2e2 e3c d3c  | 
w:  SAZ *  Me me dim  *  ci  | 
e3d d2ed d3B c3B  | BBA2 c2d2 d3B c2dB  | \
w:  van  *  Me *  *  me *  dim    |  SAZ *  *  Dağ lar da  *  cey  | 
d3B c2dc c3B B3A  | 
w:  lân  *  Me *  *  me *  dim    | 
A2A2 A2c2 c3B B3A  | c4 B2cB B2BA A4  | \
w:  SAZ *  Ağ  de mir  *  po  |  lat  Me *  *  me dim   | 
A2AA AAA2 AAA2 A4  | 
w:  vay    | 
z4 d2e2 e3c d3c  | e3d d2ed d3B c3B  | \
w:   |   | 
B2A2 d2e2 e3c d3c  | 
w:   | 
e3d d2ed d3B c3B  | BBA2 c2d2 d3B c2dB  | \
w:   |   | 
d3B c2dc c3B B3A  | 
w:   | 
A2A2 A2c2 c3B B3A  | c4 B2cB B2BA A4  | \
w:   |   | 
A2AA AAA2 AAA2 A4  | 
w:   | 
z4 f2g2 g3f f3e  | g4 f2gf f3e e3d  | \
w:  Ca bur  dağ *  dan   |  kuş  ge *  *  li *  yor    | 
d4 f3g g3f f3e  | 
w:  SAZ Mav zer  se *  si   | 
g3f f2gf f3e e3d  | d4 d2e2 e3c d3c  | \
w:  hoş  *  ge *  *  li *  yor    |  SAZ Bö lük  bö *  lük   | 
e3d d2ed d3B c3B  | 
w:  gi *  den  *  *  as *  ker    | 
BAB2 c2d2 d3c c2dB  | d3B c2dc c3B B3A  | \
w:  SAZ *  *  Ge ri  dön *  müş   |  boş  *  ge *  *  li *  yor    | 
A2A2 A2c2 c3B B3A  | 
w:  SAZ *  Ya zık  ol *  du   | 
c3B B2cB BB2A A4  | A2AA AAA2 AAAG ABcd  | 
w:  genç  *  ya *  *  şı na   |  vay   *  *  *  *  *  *  *  *  *  SAZ  | 
ede2 d2e2 e3c d3c  | e3d d2ed d3B c3B  | \
w:  *  *  *  Me me dim  *  as  |  lan  *  Me *  *  me *  dim    | 
B2A2 d2e2 e3c d3c  | 
w:  SAZ *  Me me dim  *  ci  | 
e3d d2ed d3B c3B  | BBA2 c2d2 d3B c2dB  | \
w:  van  *  Me *  *  me *  dim    |  SAZ *  *  Dağ lar da  *  cey  | 
d3B c2dc c3B B3A  | 
w:  lân  *  Me *  *  me *  dim    | 
A2A2 A2c2 c3B B3A  | c4 B2cB B2BA A4  | \
w:  SAZ *  Ağ  de mir  *  po  |  lat  Me *  *  me dim   | 
A2AA AAA2 AAA2 A4  | 
w:  vay    | 
|


